Hatter-kde/actions/24/xml-node-duplicate.svg

<?xml version="1.0" encoding="UTF-8"?>
<svg viewBox="0 0 24 24" xmlns="http://www.w3.org/2000/svg">
 <defs id="defs3051">
  <style id="current-color-scheme" type="text/css">.ColorScheme-Text {
        color:#363636;
      }</style>
 </defs>
 <path class="ColorScheme-Text" d="m5 4v1 13h1 2 1v1 1h6l4-4v-1-7-1h-2v-3h-1-10-1zm1 1h10v2h-7v1 9h-1-2v-12zm4 3h8v7h-3-1v1 3h-4v-11z" fill="currentColor"/>
</svg>

<svg xmlns="http://www.w3.org/2000/svg" viewBox="0 0 24 24">
  <defs id="defs3051">
    <style type="text/css" id="current-color-scheme">
      .ColorScheme-Text {
        color:#363636;
      }
      </style>
  </defs>
 <path style="fill:currentColor;fill-opacity:1;stroke:none" 
     d="M 5 4 L 5 5 L 5 18 L 6 18 L 8 18 L 9 18 L 9 19 L 9 20 L 15 20 L 19 16 L 19 15 L 19 8 L 19 7 L 17 7 L 17 4 L 16 4 L 6 4 L 5 4 z M 6 5 L 16 5 L 16 7 L 9 7 L 9 8 L 9 17 L 8 17 L 6 17 L 6 5 z M 10 8 L 18 8 L 18 15 L 15 15 L 14 15 L 14 16 L 14 19 L 10 19 L 10 8 z "
     class="ColorScheme-Text"
     />
</svg>
